icons/proto.svg

<svg width="16" height="16" viewBox="0 0 16 16" fill="none" xmlns="http://www.w3.org/2000/svg">
<path fill-rule="evenodd" clip-rule="evenodd" d="M6.70711 5.29289C7.09763 5.68342 7.09763 6.31658 6.70711 6.70711L3.70711 9.70711C3.31658 10.0976 2.68342 10.0976 2.29289 9.70711C1.90237 9.31658 1.90237 8.68342 2.29289 8.29289L5.29289 5.29289C5.68342 4.90237 6.31658 4.90237 6.70711 5.29289Z" fill="#EA4335"/>
<path fill-rule="evenodd" clip-rule="evenodd" d="M9.29289 12.7071C8.90237 12.3166 8.90237 11.6834 9.29289 11.2929L12.2929 8.29289C12.6834 7.90237 13.3166 7.90237 13.7071 8.29289C14.0976 8.68342 14.0976 9.31658 13.7071 9.70711L10.7071 12.7071C10.3166 13.0976 9.68342 13.0976 9.29289 12.7071Z" fill="#FBBC04"/>
<path fill-rule="evenodd" clip-rule="evenodd" d="M9.29289 5.29289C8.90237 5.68342 8.90237 6.31658 9.29289 6.70711L12.2929 9.70711C12.6834 10.0976 13.3166 10.0976 13.7071 9.70711C14.0976 9.31658 14.0976 8.68342 13.7071 8.29289L10.7071 5.29289C10.3166 4.90237 9.68342 4.90237 9.29289 5.29289Z" fill="#0F9D58"/>
<path fill-rule="evenodd" clip-rule="evenodd" d="M6.70711 12.7071C7.09763 12.3166 7.09763 11.6834 6.70711 11.2929L3.70711 8.29289C3.31658 7.90237 2.68342 7.90237 2.29289 8.29289C1.90237 8.68342 1.90237 9.31658 2.29289 9.70711L5.29289 12.7071C5.68342 13.0976 6.31658 13.0976 6.70711 12.7071Z" fill="#4285F4"/>
</svg>

<svg xmlns="http://www.w3.org/2000/svg" width="16" height="16" fill="none" viewBox="0 0 16 16"><path fill="#EA4335" fill-rule="evenodd" d="M6.707 5.293a1 1 0 0 1 0 1.414l-3 3a1 1 0 0 1-1.414-1.414l3-3a1 1 0 0 1 1.414 0" clip-rule="evenodd"/><path fill="#FBBC04" fill-rule="evenodd" d="M9.293 12.707a1 1 0 0 1 0-1.414l3-3a1 1 0 1 1 1.414 1.414l-3 3a1 1 0 0 1-1.414 0" clip-rule="evenodd"/><path fill="#0F9D58" fill-rule="evenodd" d="M9.293 5.293a1 1 0 0 0 0 1.414l3 3a1 1 0 0 0 1.414-1.414l-3-3a1 1 0 0 0-1.414 0" clip-rule="evenodd"/><path fill="#4285F4" fill-rule="evenodd" d="M6.707 12.707a1 1 0 0 0 0-1.414l-3-3a1 1 0 0 0-1.414 1.414l3 3a1 1 0 0 0 1.414 0" clip-rule="evenodd"/></svg>
